icons/calculator-line.svg

<svg xmlns="http://www.w3.org/2000/svg" viewBox="0 0 24 24">
    <g>
        <path fill="none" d="M0 0h24v24H0z"/>
        <path d="M4 2h16a1 1 0 0 1 1 1v18a1 1 0 0 1-1 1H4a1 1 0 0 1-1-1V3a1 1 0 0 1 1-1zm1 2v16h14V4H5zm2 2h10v4H7V6zm0 6h2v2H7v-2zm0 4h2v2H7v-2zm4-4h2v2h-2v-2zm0 4h2v2h-2v-2zm4-4h2v6h-2v-6z"/>
    </g>
</svg>

<svg viewBox="0 0 24 24" fill="currentColor" xmlns="http://www.w3.org/2000/svg"><path d="M4 2H20C20.5523 2 21 2.44772 21 3V21C21 21.5523 20.5523 22 20 22H4C3.44772 22 3 21.5523 3 21V3C3 2.44772 3.44772 2 4 2ZM5 4V20H19V4H5ZM7 6H17V10H7V6ZM7 12H9V14H7V12ZM7 16H9V18H7V16ZM11 12H13V14H11V12ZM11 16H13V18H11V16ZM15 12H17V18H15V12Z"/></svg>
